status/symbolic/battery-low-symbolic.svg

<svg enable-background="new" height="16" width="16" xmlns="http://www.w3.org/2000/svg">
  <g fill="#bebebe" transform="matrix(.44667783 0 0 .44667783 18.943601 5.724589)">
    <path d="m5 5.3300781v5.3398439h6.457031c.251831 0 .457031-.201295.457031-.453125v-4.4335939c.000001-.2518311-.2052-.453125-.457031-.453125z" fill-opacity=".156863" stroke-width=".857143" transform="matrix(2.23875 0 0 2.23875 -42.409987 -12.815923)" />
    <path d="m-35.235387-.88539005 4.01915-.00068319v11.95582424l-4.01915.000683c-.386127.000066-.695622-.451896-.695622-1.015683v-9.92445705c0-.563787.309495-1.015684.695622-1.015684z" fill-opacity=".666667" stroke-width="1.588058" />
    <path d="m-36.773759-2.765126c-.639999 0-1.158728.520617-1.158728 1.158728v13.397522c0 .640965.518729 1.158727 1.158728 1.158727h22.479327c.640907 0 1.158727-.518725 1.158727-1.158727v-2.378674h.909493c.640929 0 1.158727-.51592 1.158727-1.1587278v-6.2221507c.001-.640921-.517805-1.16310085-1.158727-1.16310085h-.909493v-2.47486865c0-.638111-.517769-1.158728-1.158727-1.158728zm1.858337 1.88019995h18.154865c.563787 0 1.023181.450647 1.023179 1.014434v9.92570905c0 .563784-.459392 1.014434-1.023179 1.014434h-18.154865c-.563787 0-1.014432-.45065-1.014434-1.014434v-9.92570905c0-.563787.450647-1.014434 1.014434-1.014434z" stroke-width="1.918929" />
  </g>
</svg>

<?xml version="1.0" encoding="UTF-8" standalone="no"?>
<!-- Created with Inkscape (http://www.inkscape.org/) -->

<svg
   xmlns:dc="http://purl.org/dc/elements/1.1/"
   xmlns:cc="http://creativecommons.org/ns#"
   xmlns:rdf="http://www.w3.org/1999/02/22-rdf-syntax-ns#"
   xmlns:svg="http://www.w3.org/2000/svg"
   xmlns="http://www.w3.org/2000/svg"
   xmlns:sodipodi="http://sodipodi.sourceforge.net/DTD/sodipodi-0.dtd"
   xmlns:inkscape="http://www.inkscape.org/namespaces/inkscape"
   id="svg7384"
   style="enable-background:new"
   height="16"
   width="16"
   version="1.1"
   inkscape:version="0.92.1 r15371"
   sodipodi:docname="battery-low-symbolic.svg">
  <sodipodi:namedview
     pagecolor="#a1a1a1"
     bordercolor="#666666"
     borderopacity="1"
     objecttolerance="10"
     gridtolerance="10"
     guidetolerance="10"
     inkscape:pageopacity="0"
     inkscape:pageshadow="2"
     inkscape:window-width="1600"
     inkscape:window-height="840"
     id="namedview11"
     showgrid="false"
     inkscape:zoom="32"
     inkscape:cx="5.2741283"
     inkscape:cy="8.899368"
     inkscape:window-x="0"
     inkscape:window-y="32"
     inkscape:window-maximized="1"
     inkscape:current-layer="g4250" />
  <metadata
     id="metadata90">
    <rdf:RDF>
      <cc:Work
         rdf:about="">
        <dc:format>image/svg+xml</dc:format>
        <dc:type
           rdf:resource="http://purl.org/dc/dcmitype/StillImage" />
        <dc:title>Paper Symbolic Icon Theme</dc:title>
      </cc:Work>
    </rdf:RDF>
  </metadata>
  <title
     id="title8473">Paper Symbolic Icon Theme</title>
  <defs
     id="defs7386">
    <filter
       id="filter7554"
       style="color-interpolation-filters:sRGB">
      <feBlend
         id="feBlend7556"
         in2="BackgroundImage"
         mode="darken" />
    </filter>
  </defs>
  <g
     style="fill:#ffffff;fill-opacity:1"
     id="g4250"
     transform="matrix(0.44667783,0,0,0.44667783,18.943601,5.7245885)">
    <g
       id="g7302">
      <g
         id="g7296">
        <path
           style="fill:#bebebe;fill-opacity:0.15686275;stroke-width:0.85714281;enable-background:new"
           d="M 5 5.3300781 L 5 10.669922 L 11.457031 10.669922 C 11.708862 10.669922 11.914062 10.468627 11.914062 10.216797 L 11.914062 5.7832031 C 11.914063 5.531372 11.708862 5.3300781 11.457031 5.3300781 L 5 5.3300781 z "
           transform="matrix(2.23875,0,0,2.23875,-42.409987,-12.815923)"
           id="path4508" />
        <path
           sodipodi:nodetypes="sccssss"
           inkscape:connector-curvature="0"
           id="path4510"
           d="m -35.235387,-0.88539005 4.01915,-6.8319e-4 V 11.069751 l -4.01915,6.83e-4 c -0.386127,6.6e-5 -0.695622,-0.451896 -0.695622,-1.015683 V 0.13029395 c 0,-0.563787 0.309495,-1.015684 0.695622,-1.015684 z"
           style="fill:#bebebe;fill-opacity:0.66666669;stroke-width:1.58805811;enable-background:new" />
      </g>
      <path
         id="path854-3"
         d="m -36.773759,-2.765126 c -0.639999,0 -1.158728,0.520617 -1.158728,1.158728 v 13.397522 c 0,0.640965 0.518729,1.158727 1.158728,1.158727 h 22.479327 c 0.640907,0 1.158727,-0.518725 1.158727,-1.158727 V 9.41245 h 0.909493 c 0.640929,0 1.158727,-0.51592 1.158727,-1.1587278 V 2.0315715 c 10e-4,-0.640921 -0.517805,-1.16310085 -1.158727,-1.16310085 h -0.909493 V -1.606398 c 0,-0.638111 -0.517769,-1.158728 -1.158727,-1.158728 z m 1.858337,1.88019995 h 18.154865 c 0.563787,0 1.023181,0.450647 1.023179,1.014434 V 10.055217 c 0,0.563784 -0.459392,1.014434 -1.023179,1.014434 h -18.154865 c -0.563787,0 -1.014432,-0.45065 -1.014434,-1.014434 V 0.12950795 c 0,-0.563787 0.450647,-1.014434 1.014434,-1.014434 z"
         style="fill:#bebebe;fill-opacity:1;stroke-width:1.9189285;enable-background:new"
         inkscape:connector-curvature="0" />
    </g>
    <g
       style="fill:#ffffff;fill-opacity:1"
       transform="matrix(0.02205965,0,0,0.02205965,-74.675002,-0.39149138)"
       id="g4516">
      <g
         style="fill:#ffffff;fill-opacity:1"
         id="g4514" />
    </g>
    <g
       style="fill:#ffffff;fill-opacity:1;enable-background:new"
       transform="matrix(0.02205966,0,0,0.02205966,-2.0361334,-1.370591)"
       id="g4520">
      <g
         style="fill:#ffffff;fill-opacity:1"
         id="g4518" />
    </g>
  </g>
</svg>
